X:1
T:Something About The Flying Dutchman
T:A Tale Of The Flying Dutchman 
T:LycoriX
C:G. B. Wanscher
%%score ( 1 2 ) { ( 3 5 ) | 4 }
L:1/8
Q:1/4=80
M:3/4
K:C
V:1 treble nm="Violin" snm="Vln."
V:2 treble 
V:3 treble nm="Piano" snm="Pno."
V:5 treble 
V:4 bass 
V:1
 z6 | z6 | z6 | z6 | z6 | z6 | z6 | z6 | z6 | z6 | z6 | z6 | z6 | z6 | z6 | z6 | z6 | z6 | z6 | %19
 z6 | z6 | z6 | z6 | z6 |!f! D6 |[M:4/4] (3D2 F2 A2 d3 A |[M:3/4] _B6 | f6 | AG D4 | A G4 E/F/ | %30
 G3 d g_b | g>f' (3:2:2e'4 ^c'2 | a6 | d'4 g2 | _b a3 g2 | d'2- (3:2:2d'4 g2 | a4 g2 | d'4 f'2 | %38
 e'3 !tenuto!f' .e'!tenuto!f' | (3(e'^c'a) (3!^!g2 f2 e2 | d'e' d'4 | a d3 g2 | f'd' a4 | z6 | %44
 d'e' d'4 | a d3 g2 | f'd' a4 |!>(! z6!>)! | z6 | z6 | z6 | z6 | z6 | z6 | z6 | z6 | z6 | z6 |] %58
V:2
 x6 | x6 | x6 | x6 | x6 | x6 | x6 | x6 | x6 | x6 | x6 | x6 | x6 | x6 | x6 | x6 | x6 | x6 | x6 | %19
 x6 | x6 | x6 | x6 | x6 | x6 |[M:4/4] x8 |[M:3/4] x6 | x6 | x6 | x6 | x6 | x6 | x6 | x6 | x6 | x6 | %36
 x6 | x6 | x6 | x6 | x6 | x6 | x6 | d2 (3g2 _b2 d'2 | z6 | x6 | x6 | d2 (3g2 _b2 d'2 | x6 | x6 | %50
 x6 | x6 | x6 | x6 | x6 | x6 | x6 | x6 |] %58
V:3
!pp! z6 | z6 | z2 G4- | G6 | z6 | z6 | z2 G4- | G6 | z6 | A G4 z |!f! z2 G4- | G6 |!f! ag!<(! d4 | %13
 [Aa] [Gg]4 z | _bg [G-d]4 | G6 | ag d4 | [Aa] [Gg]4 z | _bg [G-d]4 | G6!<)! |!ff! ag d4 | %21
 [Aa] [Gg]4 z | _bg [G-d]4 |!>(! G6!>)! |!mf! z6 |[M:4/4] z8 |[M:3/4] z6 | [_B,F]2 c3 _B | ag d4 | %29
 [Aa] [Gg]4 z | z6 | z6 | z6 | z6 | z6 | z6 | z6 | z6 | z6 | z6 |!ff! ag d4 | [Aa] [Gg]4 z | %42
 _bg [G-d]4 | G6 | ag d4 | [Aa] [Gg]4 z | _bg [G-d]4 |!>(! G6!>)! |!f! z4 [A,DA]2 | z4 [A,DA]2 | %50
 z2 G4- |!>(! G2 G2 [G_Bg]2 | z4 [A,DA]2 | z4 [A,DA]2 | z2 G4- | G2 G2 [G_Bg]2-!>)! | %56
!ppp! [GBg]4 z2 | z6 |] %58
V:4
!ped!!<(! [D,,,D,,]2 [D,D]4- | [D,D]6!ped-up! |!ped! [G,,,G,,]2 G,4- | G,6!ped-up! | %4
!ped! [D,,,F,,,D,,]2 [D,F,D]4- | [D,F,D]6!ped-up! |!ped! [G,,,_B,,,G,,]2 [G,_B,]4- | %7
 [G,B,]6!ped-up! |!ped! [D,,,F,,,D,,]2 [D,F,D]4- | [D,F,D]6!<)!!ped-up! | %10
!ped! [G,,,_B,,,G,,]2 [G,_B,]4- | [G,B,]6!ped-up! |!ped! [D,,,F,,,D,,]2 [D,F,D]4- | %13
 [D,F,D]6!ped-up! |!ped! [G,,,_B,,,G,,]2 [G,_B,]2 [D,D]2 | %15
 [C,G,C]2 (3[D,D]2 [_B,,_B,]2 [A,,A,]2!ped-up! |!ped! [D,,,F,,,D,,]2 [D,F,D]4- | [D,F,D]6!ped-up! | %18
!ped! [G,,,_B,,,G,,]2 [G,_B,]2 [D,D]2 | [C,G,C]2 (3[D,D]2 [_B,,_B,]2 [A,,A,]2!ped-up! | %20
!ped! [D,,,F,,,D,,]2 [D,F,D]4- | [D,F,D]6!ped-up! |!ped! [G,,,_B,,,G,,]2 [G,_B,]2 [D,D]2 | %23
 [C,G,C]2 (3[D,D]2 [_B,,_B,]2 [A,,A,]2!ped-up! |!ped! [D,,,F,,,D,,]2 [D,F,D]4- | %25
[M:4/4] [D,F,D]8!ped-up! |[M:3/4]!ped! [G,,,_B,,,G,,]2 [G,_B,]4- | [G,B,]6!ped-up! | %28
!ped! [D,,,F,,,D,,]2 [D,F,D]4- | [D,F,D]6!ped-up! |!ped! [G,,,_B,,,G,,]2 [G,_B,]4- | %31
 [G,B,]2 (3[D,D]2 [_B,,_B,]2 [A,,A,]2!ped-up! |!ped! [D,,,F,,,D,,]2 [D,F,D]4- | [D,F,D]6!ped-up! | %34
!ped! [G,,,_B,,,G,,]2 [G,_B,]4- | [G,B,]2 (3[D,D]2 [_B,,_B,]2 [A,,A,]2!ped-up! | %36
!ped! [D,,,F,,,D,,]2 [D,F,D]4- | [D,F,D]6!ped-up! |!ped! [G,,,_B,,,G,,]2 [G,_B,]4- | %39
 [G,B,]2 (3[D,D]2 [_B,,_B,]2 [A,,A,]2!ped-up! |!ped! [D,,,F,,,D,,]2 [D,F,D]4- | [D,F,D]6!ped-up! | %42
!ped! [G,,,_B,,,G,,]2 [G,_B,]2 [D,D]2 | [C,G,C]2 (3[D,D]2 [_B,,_B,]2 [A,,A,]2!ped-up! | %44
!ped! [D,,,F,,,D,,]2 [D,F,D]4- | [D,F,D]6!ped-up! |!ped! [G,,,_B,,,G,,]2 [G,_B,]2 [D,D]2 | %47
 [C,G,C]2 (3[D,D]2 [_B,,_B,]2 [A,,A,]2!ped-up! |!ped! [D,,,F,,,D,,]2 [D,F,D]4- | %49
 [D,F,D]2 [D,F,D]4!ped-up! |!ped! [G,,,_B,,,G,,]2 [G,_B,]4- | [G,B,]2 [G,_B,]4!ped-up! | %52
!ped! [D,,,F,,,D,,]2 [D,F,D]4- | [D,F,D]2 [D,F,D]4!ped-up! |!ped! [G,,,_B,,,G,,]2 [G,_B,]4- | %55
 [G,B,]2 [G,_B,]4 | z2 z2 [D,,,F,,,D,,]2 | z6!ped-up! |] %58
V:5
 x6 | x6 | x6 | x6 | x6 | x6 | x6 | x6 | x6 | x6 | x6 | _BA z4 | x6 | x6 | x6 | %15
 [_Ba]A (3g2 _b2 d2 | x6 | x6 | x6 | [_Ba]A (3g2 _b2 d2 | x6 | x6 | x6 | [_Ba]A (3g2 _b2 d'2 | x6 | %25
[M:4/4] x8 |[M:3/4] x6 | x6 | x6 | x6 | x6 | x6 | x6 | x6 | x6 | x6 | x6 | x6 | x6 | x6 | x6 | x6 | %42
 x6 | [_Ba]A (3g2 _b2 d'2 | x6 | x6 | x6 | [_Ba]A (3g2 _b2 d'2 | x6 | x6 | x4 [G_Bg]2 | x6 | x6 | %53
 x6 | x4 [G_Bg]2 | x6 | x6 | x6 |] %58

